!! Ludwig van Beethoven, "Variation 6" from
!! "Six Easy Variations on a Swiss Air" (1798) for harpsichord, Opus 183.
!! Kalmus Edition, Score No. 1031; (CGC library) M3.B42 Ser. 16, Vol. 6, p.8
!! Andante con moto.
**kern	**kern	**kern
*M4/4	*M4/4	*M4/4
*F	*F	*F
4CC'	4C'	4c'
=1	=1	=1
4FF'	4F'	4f'
4GG'	4G'	4g'
4AA'	4A'	4a'
4FF'	4F'	4f'
=2	=2	=2
4C	4c	8cc
.	.	16bb-
.	.	16gg
4r	4r	16ff
.	.	16ee
.	.	16dd
.	.	16cc
2C	2E	16b-
.	.	16a
.	.	16g
.	.	16f
.	.	16e
.	.	16d
.	.	16c
.	.	16B-
=3	=3	=3
4FF	4F	16A
.	.	16f
.	.	16c
.	.	16A
4r	16F	4r
.	16C	.
.	16AA	.
.	16C	.
4FF	4r	4r
4r	4r	4c' 4cc'
=4	=4	=4
4CC'	4C'	4c' 4cc'
4DD'	4D'	4d' 4dd'
4EE'	4E'	4e' 4ee'
4CC'	4C'	4c' 4cc'
=5	=5	=5
4FF	4F	8f 8ff
.	.	16aa
.	.	16ff
4r	4r	16ee
.	.	16dd
.	.	16cc
.	.	16bn
2GG	2F	16a
.	.	16g
.	.	16f
.	.	16e
.	.	16d
.	.	16c
.	.	16Bn
.	.	16d
=6	=6	=6
4C	4E	16c
.	.	16e
.	.	16c
.	.	16G
16C	4r	4E
16GG	.	.
16EE	.	.
16GG	.	.
4CC	4r	2r
4C'	4c'	.
=7	=7	=7
4F'	4f'	4r
4E'	4e'	{4ccT
4D'	4d'	4ff'}
4C'	4c'	4ee'
=8	=8	=8
4F'	4f'	4dd'
4E'	4e'	{4ccT
4D'	4d'	[4ff
4C'	4r	16ff}]
.	.	16ee
.	.	16dd
.	.	16cc
=9	=9	=9
4FF	4F	16dd
.	.	16cc
.	.	16b-
.	.	16a
4GG	4G	16cc
.	.	16b-
.	.	16dd
.	.	16b-
4AA	4A	16b-
.	.	16a
.	.	16cc
.	.	16a
4BB-	4B-	16a
.	.	16g
.	.	16b-
.	.	16g
=10	=10	=10
2C	2c	8f'
.	.	8g'
.	.	8a'
.	.	8b-
2C 2G	2b-	{4cc
.	.	8dd'}
.	.	8ee'
=11	=11	=11
8F'	4a	4ff
8G'	.	.
8A'	4r	4r
8B-'	.	.
{4c	4r	{2b- 2cc
8d'}	8r	.
8r	8e'	.
=12	=12	=12
8FF'	4f	4a}
8GG'	.	.
8AA'	4r	4r
8BB-'	.	.
{4C	2B-	{2c
8D'}	.	.
8E'	.	.
=13	=13	=13
4FF	4F	4A}
4r	4r	4r
4r;	4r;	4r;
==	==	==
*-	*-	*-
